src/4-icons/text.svg

<svg width="260" height="260" viewBox="0 0 260 260" fill="none" xmlns="http://www.w3.org/2000/svg">
<g opacity="0.9">
<path d="M176.826 98.1754H79.5082V108.575H176.826V98.1754Z" fill="black"/>
<path d="M176.826 164.71H79.5082V175.11H176.826V164.71Z" fill="black"/>
<path d="M79.5082 120.354H162.942V130.754H79.5082V120.354Z" fill="black"/>
<path d="M171.626 142.532H79.5082V152.932H171.626V142.532Z" fill="black"/>
<path d="M48.1254 54.2365C50.9976 54.2365 53.3254 51.9087 53.3254 49.0365C53.3254 46.1643 50.9976 43.8365 48.1254 43.8365C45.2532 43.8365 42.9254 46.1643 42.9254 49.0365C42.9254 51.9087 45.2532 54.2365 48.1254 54.2365Z" fill="black"/>
<path d="M68.7953 49.0365C68.7953 51.9087 66.4675 54.2365 63.5953 54.2365C60.7232 54.2365 58.3953 51.9087 58.3953 49.0365C58.3953 46.1643 60.7232 43.8365 63.5953 43.8365C66.4675 43.8365 68.7953 46.1643 68.7953 49.0365Z" fill="black"/>
<path d="M79.0653 54.2365C81.9375 54.2365 84.2653 51.9087 84.2653 49.0365C84.2653 46.1643 81.9375 43.8365 79.0653 43.8365C76.1931 43.8365 73.8653 46.1643 73.8653 49.0365C73.8653 51.9087 76.1931 54.2365 79.0653 54.2365Z" fill="black"/>
<path fill-rule="evenodd" clip-rule="evenodd" d="M40.4297 212.914H221.701C228.877 212.888 234.675 207.09 234.701 199.914V43.1855C234.676 36.0091 228.878 30.212 221.701 30.1855H40.4297C33.2533 30.212 27.4561 36.0102 27.4297 43.1855V199.914C27.4561 207.09 33.2543 212.887 40.4297 212.914ZM223.548 201.735C223.053 202.229 222.43 202.489 221.728 202.515H40.4297C39.7279 202.515 39.1033 202.229 38.6097 201.735C38.1161 201.24 37.8561 200.617 37.8297 199.915V67.3402H224.301V199.915C224.301 200.617 224.042 201.24 223.548 201.735ZM38.6097 41.3666C39.1033 40.873 39.7279 40.613 40.4297 40.5866H221.701C222.403 40.5866 223.027 40.873 223.521 41.3666C224.016 41.8602 224.276 42.4848 224.301 43.1866V56.9412H37.8297V43.1866C37.8297 42.4848 38.1161 41.8602 38.6097 41.3666Z" fill="black"/>
</g>
</svg>

<svg width="260" height="260" fill="none" xmlns="http://www.w3.org/2000/svg"><g opacity=".9" fill="#000"><path d="M176.826 98.175H79.508v10.4h97.318v-10.4Zm0 66.535H79.508v10.4h97.318v-10.4Zm-97.318-44.356h83.434v10.4H79.508v-10.4Zm92.118 22.178H79.508v10.4h92.118v-10.4ZM48.125 54.236a5.2 5.2 0 1 0 .001-10.399 5.2 5.2 0 0 0 0 10.4Zm20.67-5.2a5.2 5.2 0 1 1-10.399.001 5.2 5.2 0 0 1 10.4 0Zm10.27 5.2a5.2 5.2 0 1 0 .001-10.399 5.2 5.2 0 0 0 0 10.4Z"/><path fill-rule="evenodd" clip-rule="evenodd" d="M40.43 212.914H221.7c7.176-.026 12.974-5.824 13-13V43.186c-.025-7.177-5.823-12.974-13-13H40.43c-7.177.026-12.974 5.824-13 13v156.728c.026 7.176 5.824 12.973 13 13Zm183.118-11.179a2.65 2.65 0 0 1-1.82.78H40.43c-.702 0-1.327-.286-1.82-.78a2.654 2.654 0 0 1-.78-1.82V67.34H224.3v132.575c0 .702-.259 1.325-.753 1.82ZM38.61 41.367a2.651 2.651 0 0 1 1.82-.78H221.7c.702 0 1.326.286 1.82.78.495.493.755 1.118.78 1.82V56.94H37.83V43.187c0-.702.286-1.327.78-1.82Z"/></g></svg>
